X:1
T:MfCH 5.10
M:4/4
L:1/8
K:G
E3F  A2G2 | B3c  d2G2 | e3d  c3B  | A4   BAGF|
E3F  cBAG | A3B  edcB | f2e2 g4   | fdce dBAc|
B3d  G4   | A3c  F4   | G3B  E4   | DEFG FGAB|
ABcd cdef | g3f  b2a2 | c'4  c'4  | bd'c'a gbaf|
egfd cedB | A2A2 aged | edBA BAFE | G3G  G4|
DAce gfed | EBdf agfe | b3a  d4   | g3f  B4|
e3d  G4   | c3E  FGAB | GABd cdef | g8|]       
